X: 1
T: Delia Keane's
M: 4/4
L: 1/8
R: reel
K: Dmix
DEFG AFGF | EFGF EA, A,2 | D2 FD ABcA |1 GE E2 D2 DE :|2 GE E2 D2 D2 |
A2 d2 dcAG | FGAB c2 Bc | d2 Ad dcAB | cAGE ED D2 |
Adde dcAG | FGAB cABc | dBcA BGAB | cBcd ed d2 |
